X:2490
T:Harvest Cany A Coming?. JMT058
O:england
M:4/4
L:1/8
Q:200
S:J.Moore,Tyneside,1841.(43a)
R:Reel
A:Northumbria
K:D
A,|D2FA DAFD|A,A,CE A,ECA,|D>DFA DAFA|(3Bcd (3efg fd d:|
|:A| d2fd adfd|B>B ed cGAc|d2fd adfd|(3Bcd (3efg fd dA|
d2fd adfd|B>B ed cAAg|(3fag (3fed (3dcB (3AGF|(3GAB (3ABc (3dAG (3FGD:|]


